flaticon/transportation/train-7.svg

<svg xmlns="http://www.w3.org/2000/svg" width="32" height="32" viewBox="0 0 24 24">
    <path d="M 17.875 2.976562 L 15.113281 2.976562 C 15.125 2.875 15.132812 2.773438 15.132812 2.667969 C 15.132812 1.195312 13.730469 0 12 0 C 10.269531 0 8.867188 1.195312 8.867188 2.667969 C 8.867188 2.773438 8.875 2.875 8.886719 2.976562 L 6.125 2.976562 C 4.273438 2.976562 2.765625 4.257812 2.765625 5.832031 L 2.765625 18.699219 C 2.765625 20.101562 3.96875 21.273438 5.542969 21.507812 L 4.097656 23.367188 L 4.910156 24 L 6.816406 21.550781 L 17.183594 21.550781 L 19.089844 24 L 19.902344 23.367188 L 18.457031 21.507812 C 20.03125 21.273438 21.234375 20.101562 21.234375 18.699219 L 21.234375 5.832031 C 21.234375 4.257812 19.726562 2.976562 17.875 2.976562 Z M 12 1.03125 C 13.164062 1.03125 14.105469 1.761719 14.105469 2.667969 C 14.105469 3.574219 13.164062 4.308594 12 4.308594 C 10.835938 4.308594 9.894531 3.574219 9.894531 2.667969 C 9.894531 1.761719 10.835938 1.03125 12 1.03125 Z M 20.207031 18.699219 C 20.207031 19.703125 19.160156 20.523438 17.875 20.523438 L 6.125 20.523438 C 4.839844 20.523438 3.792969 19.703125 3.792969 18.699219 L 3.792969 5.832031 C 3.792969 4.828125 4.839844 4.007812 6.125 4.007812 L 9.289062 4.007812 C 9.832031 4.804688 10.839844 5.339844 12 5.339844 C 13.160156 5.339844 14.167969 4.804688 14.710938 4.007812 L 17.875 4.007812 C 19.160156 4.007812 20.207031 4.828125 20.207031 5.832031 Z M 20.207031 18.699219"/>
    <path d="M14.621094 17.9375L17.390625 17.9375 17.390625 18.964844 14.621094 18.964844zM6.234375 17.9375L9.007812 17.9375 9.007812 18.964844 6.234375 18.964844zM16.371094 6.671875L7.628906 6.671875C6.980469 6.671875 6.378906 6.953125 6.019531 7.417969 5.726562 7.804688 5.628906 8.285156 5.75 8.738281L7.214844 14.109375C7.421875 14.867188 8.191406 15.394531 9.089844 15.394531L14.910156 15.394531C15.808594 15.394531 16.578125 14.867188 16.785156 14.109375L18.25 8.738281C18.371094 8.285156 18.273438 7.804688 17.980469 7.417969 17.621094 6.953125 17.019531 6.671875 16.371094 6.671875zM17.253906 8.46875L15.792969 13.835938C15.710938 14.136719 15.332031 14.367188 14.910156 14.367188L9.089844 14.367188C8.667969 14.367188 8.289062 14.136719 8.207031 13.835938L6.746094 8.46875C6.695312 8.285156 6.832031 7.703125 7.628906 7.703125L16.371094 7.703125C17.175781 7.703125 17.304688 8.285156 17.253906 8.46875zM17.253906 8.46875"/>
</svg>

<svg xmlns="http://www.w3.org/2000/svg" width="32" height="32" viewBox="0 0 24 24">
    <path d="M17.875 2.977h-2.762a2.67 2.67 0 0 0 .02-.309C15.133 1.195 13.73 0 12 0S8.867 1.195 8.867 2.668c0 .105.008.207.02.309H6.125c-1.852 0-3.36 1.28-3.36 2.855v12.867c0 1.403 1.204 2.574 2.778 2.809l-1.445 1.86.812.632 1.906-2.45h10.368L19.09 24l.812-.633-1.445-1.86c1.574-.234 2.777-1.405 2.777-2.808V5.832c0-1.574-1.507-2.855-3.359-2.855zM12 1.03c1.164 0 2.105.73 2.105 1.637 0 .906-.94 1.64-2.105 1.64-1.164 0-2.105-.734-2.105-1.64 0-.906.94-1.637 2.105-1.637zM20.207 18.7c0 1.004-1.047 1.824-2.332 1.824H6.125c-1.285 0-2.332-.82-2.332-1.824V5.832c0-1.004 1.047-1.824 2.332-1.824h3.164C9.832 4.805 10.84 5.34 12 5.34c1.16 0 2.168-.535 2.71-1.332h3.165c1.285 0 2.332.82 2.332 1.824zm0 0"/>
    <path d="M14.621 17.938h2.77v1.027h-2.77zm0 0M6.234 17.938h2.774v1.027H6.234zm0 0M16.371 6.672H7.63c-.649 0-1.25.281-1.61.746-.292.387-.39.867-.269 1.32l1.465 5.371c.207.758.976 1.286 1.875 1.286h5.82c.899 0 1.668-.528 1.875-1.286l1.465-5.37a1.523 1.523 0 0 0-.27-1.321c-.359-.465-.96-.746-1.609-.746zm.883 1.797l-1.461 5.367c-.082.3-.461.531-.883.531H9.09c-.422 0-.8-.23-.883-.531l-1.46-5.367c-.052-.184.085-.766.882-.766h8.742c.805 0 .934.582.883.766zm0 0"/>
</svg>
